X: 233
T: Joc de Fete
O: Romania
F: http://www.youtube.com/watch?v=GuXmBgzS4DA
M: 5/4
L: 1/4
Q: 1/4=144
K:D
%%MIDI program 49
FFAG2|FEED2   |FEEE2 |CB,B,A,2 |C/B,/B,A,A,z|
EEEE2|CB,B,A,2| AAAB2|AG3/2A/Fz|FEED2-      |D4z|



